X:1
T:Title
%%score { ( 1 3 ) | ( 2 4 ) }
L:1/8
M:4/4
K:Ab
V:1 treble nm="Grand Piano"
V:3 treble 
V:2 bass 
V:4 bass 
V:1
 z4 z2[Q:1/4=92] [CE][CF] | [CE][Ec][DB][CA] [DG]2 [DE][DF] |[M:3/4] [DE][Fd] cB A2 |[M:1/4] Ac | %4
[M:4/4] eeAc ee c>A |[M:3/4] z B- B4[K:bass] |[M:1/4] E[DE] | %7
[M:4/4][K:treble] [CE][Ec][DB][CA] [DG]2 [DE][DF] |[M:3/4] [DE][Fd] cB A2 |[M:1/4] BB | %10
[M:4/4] ccAc BB [A=d]>[AB] | e4 e4 | e3 c f e3 | [EAc]3 [EAc] [DEB][CEA][A,EA]B | cc_c=c ee c>A | %15
 z B3- B2[K:bass] z2[K:treble] | [CE][Ec][DB][CA] [DG]2 [DE][DF] | [DE][Fd]cB A2 [GA][GA] | %18
 [Af]<[Af] [FA][FA] [Ae]2 [Ac]>[Ac] |[M:3/4] [DGB]4 [CEA]2 |] %20
V:2
 z4 z2 [A,,A,][A,,A,] | [A,,A,][A,,A,][A,,A,][A,,A,] [B,,E,]2 [B,,G,][B,,G,] | %2
[M:3/4] [E,G,][E,G,] [E,G,E][E,G,D][K:treble] [A,C]2 |[M:1/4] [A,CE][A,EA] | %4
[M:4/4] [A,CA][A,CA][A,CE][A,EA] [A,CA][A,CA] [A,EA]>[K:bass][A,CE] |[M:3/4] z [G,E]- [G,E]4 | %6
[M:1/4] [C,A,][B,,G,] |[M:4/4] [A,,A,][A,,A,][A,,A,][A,,A,] [B,,E,]2 [B,,G,][B,,G,] | %8
[M:3/4] [E,G,][E,G,] [E,G,E][E,G,D] [F,A,C]2 |[M:1/4] [G,E][G,E] | %10
[M:4/4] [A,E][A,E][A,CE][A,E] [G,E][G,E] [F,B,]>[F,B,] | E,->[E,-=A,] [E,-B,][E,C] z[K:treble] D3 | %12
 [A,CA]3 [A,EA] [A,DA] [A,CA]3 | A,,3 A,, A,,A,,C,[E,G,E] | %14
 [A,E][A,E][A,=D][A,E] [A,CE][A,CE] [A,E]>[A,C] | [E,A,E] [G,E]3- [G,E]2 [C,A,][B,,G,] | %16
 [A,,A,][A,,A,][A,,A,][A,,A,] [B,,E,]2 [B,,G,][B,,G,] | %17
 [E,G,][E,G,][E,G,E][E,G,D] [F,A,C]2 [E,C][E,C] | [D,D]<[D,D] [=D,_C][D,C] [E,=CE]2 [E,E]>[E,E] | %19
[M:3/4] z2 z E A,,2 |] %20
V:3
 x8 | x8 |[M:3/4] x6 |[M:1/4] x2 |[M:4/4] x8 |[M:3/4] .c2 E,>[K:bass]F, E,D, |[M:1/4] x2 | %7
[M:4/4][K:treble] x8 |[M:3/4] x6 |[M:1/4] x2 |[M:4/4] x8 | G>_G =GA [DB] B3 | x8 | x8 | x8 | %15
 .c2 E,>F, E,[K:bass]D,E[K:treble][DE] | x8 | x8 | x8 |[M:3/4] x6 |] %20
V:4
 x8 | x8 |[M:3/4] x4[K:treble] x2 |[M:1/4] x2 |[M:4/4] x15/2[K:bass] x/ |[M:3/4] [E,A,E]E, z2 z2 | %6
[M:1/4] x2 |[M:4/4] x8 |[M:3/4] x6 |[M:1/4] x2 |[M:4/4] x8 | B,2 z2 E,4[K:treble] | x8 | x8 | x8 | %15
 z E, z2 z4 | x8 | x8 | x8 |[M:3/4] E,4 z2 |] %20

